X:43
T:Midwinter Waltz
Z:Jack Campin, http://www.campin.me.uk/
F:Jack Campin's Nine-Note Tunebook
% last edit 03-02-2013
T:AAB
C:Dave Richardson
M:3/4
L:1/8
Q:3/4=50
P:AAB
K:F % Transposed from G
P:A
FG|A3B c2|c3A G2|   G3A G2|F4  \
DF|
   G3A G2|G3A G2|[1 F3G AB|G4:|\
                 [2 F3G F2|F4||
P:B
   GA|B3A B2|B3A B2|d3c d2|G3A \
   B2|c3d c2|A3G F2|
                    G3A F2|G4  \ 
[1 GA|B3A B2|B3A B2|d3c d2|G3A
   B2|c3d c2|A3G F2|G3A G2|F4:|\
[2 FG|A3B c2|c3A G2|
                    G3A G2|F4  \
   DF|G3A G2|G3A G2|F3G F2|F4|]

